_uploads/smarta-kartan-logo.svg

<svg height="345" width="356" xmlns="http://www.w3.org/2000/svg"><path d="m80.769 271.494-34.493-33.132 62.974-.112" fill="#333"/><path d="m156.281 141.311h-75.451l45.738-65.093h75.452z" fill="#e860db"/><path d="m231.732 141.311h-75.451l45.739-65.093h75.45z" fill="#68a3ff"/><path d="m202.02 206.402h-75.452l-45.738-65.091h75.451z" fill="#48b55f"/><path d="m277.47 206.402h-75.45l-45.739-65.091h75.451z" fill="#f4ae22"/><path d="m156.281 271.494h-75.451l45.738-65.092h75.452z" fill="#ef5b5b"/><path d="m231.732 271.494h-75.451l45.739-65.092h75.45z"/><g fill="none" stroke-miterlimit="10" stroke-width="10"><path d="m299.982 120.875-23.655 36.255" stroke="#000"/><path d="m276.613 120.692 23.084 36.621" stroke="#000"/><path d="m8 8h338.5v329h-338.5z" stroke="#333"/></g></svg>

<svg xmlns="http://www.w3.org/2000/svg" width="356" height="345"><path fill="#333" d="M80.769 271.494L46.276 238.362 109.25 238.25"/><path fill="#E860DB" d="M156.281 141.311L80.83 141.311 126.568 76.218 202.02 76.218z"/><path fill="#68A3FF" d="M231.732 141.311L156.281 141.311 202.02 76.218 277.47 76.218z"/><path fill="#48B55F" d="M202.02 206.402L126.568 206.402 80.83 141.311 156.281 141.311z"/><path fill="#F4AE22" d="M277.47 206.402L202.02 206.402 156.281 141.311 231.732 141.311z"/><path fill="#EF5B5B" d="M156.281 271.494L80.83 271.494 126.568 206.402 202.02 206.402z"/><path d="M231.732 271.494L156.281 271.494 202.02 206.402 277.47 206.402z"/><path fill="none" stroke="#000" stroke-width="10" stroke-miterlimit="10" d="M299.982 120.875L276.327 157.13"/><path fill="none" stroke="#000" stroke-width="10" stroke-miterlimit="10" d="M276.613 120.692L299.697 157.313"/><path fill="none" stroke="#333" stroke-width="10" stroke-miterlimit="10" d="M8 8H346.5V337H8z"/></svg>
